**kern	**silbe	**kern	**silbe	**harmony	**chordsym	**phrase	**timestamp	**leadinstrument
*ICvox	*	*ICvox	*	*M4/4	*M4/4	*	*	*
*C:	*	*C:	*	*C:	*C:	*C:	*C:	*C:
*M4/4	*	*M4/4	*	*	*	*	*	*
*clefG2	*	*clefF4	*	*	*	*	*	*
r;	.	r;	.	1r;	r	.	0	r
=1	=1	=1	=1	=1	=1	=1	=1	=1
*	*	*	*	*>A_intro	*>A_intro	*>A_intro	*>A_intro	*>A_intro
1r	.	1r	.	2CM	C:maj (C E G)	newline	0.443	keyboard
.	.	.	.	2GM	G:maj (C G B D)	.	.	keyboard
=2	=2	=2	=2	=2	=2	=2	=2	=2
1r	.	1r	.	2Am	A:min (C A E)	.	.	keyboard
.	.	.	.	2GM	G:maj (C G B D)	.	.	keyboard
=3	=3	=3	=3	=3	=3	=3	=3	=3
1r	.	1r	.	1Cmm	C:min7 (C E- G B-)	.	.	keyboard
=4	=4	=4	=4	=4	=4	=4	=4	=4
1r	.	1r	.	1Cmm	C:min7 (C E- G B-)	.	.	keyboard
=5	=5	=5	=5	=5	=5	=5	=5	=5
1r	.	1r	.	1FM	F:maj (F A C)	.	.	keyboard
=6	=6	=6	=6	=6	=6	=6	=6	=6
1r	.	1r	.	1FM	F:maj (F A C)	.	.	keyboard
=7	=7	=7	=7	=7	=7	=7	=7	=7
1r	.	1r	.	1CM	C:maj (C E G)	.	.	keyboard
=8	=8	=8	=8	=8	=8	=8	=8	=8
2r	.	1r	.	1CM	C:maj (C E G)	.	.	keyboard
4r	.	.	.	.	.	.	.	.
16f	My	.	.	.	.	.	.	.
8.g	_	.	.	.	.	.	.	.
=9	=9	=9	=9	=9	=9	=9	=9	=9
*	*	*	*	*>B_verse	*>B_verse	*>B_verse	*>B_verse	*>B_verse
16g	friends	1r	.	1Cm	C:min (C E- G)	newline	17.081	voice
8.f	_	.	.	.	.	.	.	.
8fQ	_	.	.	.	.	.	.	.
8e~	won-	.	.	.	.	.	.	.
8e-	-der	.	.	.	.	.	.	.
8e-	why	.	.	.	.	.	.	.
8d	I	.	.	.	.	.	.	.
8d	call	.	.	.	.	.	.	.
8d	you	.	.	.	.	.	.	.
=10	=10	=10	=10	=10	=10	=10	=10	=10
*clefF4	*	*	*	*	*	*	*	*
8d	all	1r	.	1Cm	C:min (C E- G)	.	.	voice
8e-	the	.	.	.	.	.	.	.
8c	time,	.	.	.	.	.	.	.
8G	_	.	.	.	.	.	.	.
8G	what	.	.	.	.	.	.	.
8B-	can	.	.	.	.	.	.	.
8G	I	.	.	.	.	.	.	.
8[B-	say	.	.	.	.	.	.	.
=11	=11	=11	=11	=11	=11	=11	=11	=11
8B-]	_	1r	.	1Fm	F:min (F A- C)	.	.	voice
16G	_	.	.	.	.	.	.	.
16F	_	.	.	.	.	.	.	.
8E-	_	.	.	.	.	.	.	.
8r	.	.	.	.	.	.	.	.
4r	.	.	.	.	.	.	.	.
4r	.	.	.	.	.	.	.	.
=12	=12	=12	=12	=12	=12	=12	=12	=12
1r	.	1r	.	1Fm	F:min (F A- C)	.	.	voice
=13	=13	=13	=13	=13	=13	=13	=13	=13
4e-	I	1r	.	1A-M	A-:maj (A- C E-)	.	.	voice
4e-	don't	.	.	.	.	.	.	.
8e-	feel	.	.	.	.	.	.	.
8c	the	.	.	.	.	.	.	.
8e-	need	.	.	.	.	.	.	.
8c	to	.	.	.	.	.	.	.
=14	=14	=14	=14	=14	=14	=14	=14	=14
4f	give	1r	.	1B-M	B-:maj (B- D F)	.	.	voice
4f	such	.	.	.	.	.	.	.
8g	se-	.	.	.	.	.	.	.
8f	-crets	.	.	.	.	.	.	.
8e-	a-	.	.	.	.	.	.	.
16f	-way	.	.	.	.	.	.	.
16e-	_	.	.	.	.	.	.	.
=15	=15	=15	=15	=15	=15	=15	=15	=15
1[c	_	1r	.	1CM	C:maj(9) (C E G D)	.	.	voice
=16	=16	=16	=16	=16	=16	=16	=16	=16
2c_	_	1r	.	1CM	C:maj(9) (C E G D)	.	.	voice
8c]	_	.	.	.	.	.	.	.
8r	.	.	.	.	.	.	.	.
8r	.	.	.	.	.	.	.	.
8g	You	.	.	.	.	.	.	.
=17	=17	=17	=17	=17	=17	=17	=17	=17
16g	think	1r	.	1Cm	C:min (C E- G)	newline	32.769	voice
8.f	_	.	.	.	.	.	.	.
8fQ	_	.	.	.	.	.	.	.
8e-	may-	.	.	.	.	.	.	.
8e-	-be	.	.	.	.	.	.	.
8e-	I	.	.	.	.	.	.	.
4d	need	.	.	.	.	.	.	.
16e-	help	.	.	.	.	.	.	.
16d	_	.	.	.	.	.	.	.
=18	=18	=18	=18	=18	=18	=18	=18	=18
8c	_	1r	.	1Cm	C:min (C E- G)	.	.	voice
8r	.	.	.	.	.	.	.	.
8G	though	.	.	.	.	.	.	.
8G	I	.	.	.	.	.	.	.
8B-	know	.	.	.	.	.	.	.
8B-	I'm	.	.	.	.	.	.	.
8G	_	.	.	.	.	.	.	.
8[B-	right	.	.	.	.	.	.	.
=19	=19	=19	=19	=19	=19	=19	=19	=19
8B-]	_	1r	.	1Fm	F:min (F A- C)	.	.	voice
8c	_	.	.	.	.	.	.	.
4r	.	.	.	.	.	.	.	.
4r	.	.	.	.	.	.	.	.
8G	all	.	.	.	.	.	.	.
8F	right	.	.	.	.	.	.	.
=20	=20	=20	=20	=20	=20	=20	=20	=20
2r	.	1r	.	1Fm	F:min (F A- C)	.	.	voice
4r	.	.	.	.	.	.	.	.
8r	.	.	.	.	.	.	.	.
8c	I'm	.	.	.	.	.	.	.
=21	=21	=21	=21	=21	=21	=21	=21	=21
4e-	just	1r	.	1A-M	A-:maj (A- C E-)	.	.	voice
8e-	bet-	.	.	.	.	.	.	.
8c	-ter	.	.	.	.	.	.	.
4e-	off	.	.	.	.	.	.	.
8e-	not	.	.	.	.	.	.	.
8f	l-	.	.	.	.	.	.	.
=22	=22	=22	=22	=22	=22	=22	=22	=22
8f	-lis-	1r	.	1B-M	B-:maj (B- D F)	.	.	voice
8f	-ten-	.	.	.	.	.	.	.
8f	-ing	.	.	.	.	.	.	.
8f	to	.	.	.	.	.	.	.
8fq	_	.	.	.	.	.	.	.
8g	friends'	.	.	.	.	.	.	.
8f	_	.	.	.	.	.	.	.
8e-	ad-	.	.	.	.	.	.	.
8fq	_	.	.	.	.	.	.	.
8e-	_	.	.	.	.	.	.	.
=23	=23	=23	=23	=23	=23	=23	=23	=23
1[c	_	1r	.	1CM	C:maj(9) (C E G D)	.	.	voice
=24	=24	=24	=24	=24	=24	=24	=24	=24
2c]	_	1r	.	1CM	C:maj(9) (C E G D)	.	.	voice
8r	.	.	.	.	.	.	.	.
8g	When	.	.	.	.	.	.	.
8g	they	.	.	.	.	.	.	.
8g	in-	.	.	.	.	.	.	.
=25	=25	=25	=25	=25	=25	=25	=25	=25
*	*	*	*	*>C_prechorus	*>C_prechorus	*>C_prechorus	*>C_prechorus	*>C_prechorus
8g	-sist	1r	.	2Fm	F:sus2 (F G C)	newline	48.636	voice
4r	.	.	.	.	.	.	.	.
8c	on	.	.	.	.	.	.	.
8e-	kno-	.	.	2Fm	F:min (F A- C)	.	.	voice
8f	-wing	.	.	.	.	.	.	.
8g	my	.	.	.	.	.	.	.
16g	bliss	.	.	.	.	.	.	.
16a-	_	.	.	.	.	.	.	.
=26	=26	=26	=26	=26	=26	=26	=26	=26
4g	_	1r	.	1Gmm	G:min7 (D G B- F)	.	.	voice
4r	.	.	.	.	.	.	.	.
2r	.	.	.	.	.	.	.	.
=27	=27	=27	=27	=27	=27	=27	=27	=27
4r	.	1r	.	1Fmm	F:min9 (F A- E- G)	.	.	voice
8r	.	.	.	.	.	.	.	.
8c	I	.	.	.	.	.	.	.
8e-	tell	.	.	.	.	.	.	.
8f	them	.	.	.	.	.	.	.
8g	_	.	.	.	.	.	.	.
8g	this	.	.	.	.	.	.	.
=28	=28	=28	=28	=28	=28	=28	=28	=28
2r	.	1r	.	1Gmm	G:min7 (D G B- F)	.	.	voice
8c	When	.	.	.	.	.	.	.
8e-	they	.	.	.	.	.	.	.
8e-	wan-	.	.	.	.	.	.	.
8c	-na	.	.	.	.	.	.	.
=29	=29	=29	=29	=29	=29	=29	=29	=29
4e-	know	1r	.	1Fmm	F:min9 (F A- E- G)	.	.	voice
8e-	what	.	.	.	.	.	.	.
8c	the	.	.	.	.	.	.	.
8e-	rea	.	.	.	.	.	.	.
8f	_	.	.	.	.	.	.	.
8g	son	.	.	.	.	.	.	.
16g	is	.	.	.	.	.	.	.
16a-	_	.	.	.	.	.	.	.
=30	=30	=30	=30	=30	=30	=30	=30	=30
4g	_	1r	.	1Gmm	G:min7 (D G B- F)	.	.	voice
4r	.	.	.	.	.	.	.	.
8r	.	.	.	.	.	.	.	.
8c	I	.	.	.	.	.	.	.
8e-	on-	.	.	.	.	.	.	.
8c	-ly	.	.	.	.	.	.	.
=31	=31	=31	=31	=31	=31	=31	=31	=31
*	*	*clefG2	*	*	*	*	*	*
4e-	smile	1r	.	1Fmm	F:min9 (F A- E- G)	.	.	voice
8e-	when	.	.	.	.	.	.	.
8c	I	.	.	.	.	.	.	.
4e-	lie,	.	.	.	.	.	.	.
8c	then	.	.	.	.	.	.	.
8e-	I	.	.	.	.	.	.	.
=32	=32	=32	=32	=32	=32	=32	=32	=32
8fq	_	.	.	.	.	.	.	.
8g	tell	2r	.	2FM	F:maj (G F A C)	.	.	voice
8g	them	.	.	.	.	.	.	.
4[g	why	.	.	.	.	.	.	.
8g]	_	8r	.	2GM	G:maj (G B D)	.	.	voice
8r	.	8d 8g 8b	Be-	.	.	.	.	.
4r	.	8d 8g 8b	-cause	.	.	.	.	.
.	.	8e 8g 8cc	your	.	.	.	.	.
=33	=33	=33	=33	=33	=33	=33	=33	=33
*	*	*	*	*>D_chorus	*>D_chorus	*>D_chorus	*>D_chorus	*>D_chorus
4r	.	8e 8g 8cc	kiss	2CM	C:maj (C E G)	newline	64.37	voice
.	.	8r	.	.	.	.	.	.
8e	Your	4r	.	.	.	.	.	.
8d	kiss	.	.	.	.	.	.	.
4r	.	2r	.	2GM	G:maj (C G B D)	.	.	voice
8d	is	.	.	.	.	.	.	.
8[c	on	.	.	.	.	.	.	.
=34	=34	=34	=34	=34	=34	=34	=34	=34
4c]	_	2r	.	2Am	A:min (C A E)	.	.	voice
8cq	_	.	.	.	.	.	.	.
8d	my	.	.	.	.	.	.	.
8d	list	.	.	.	.	.	.	.
8r	.	8r	.	2GM	G:maj (C G B D)	.	.	voice
8d	be-	8B 8d 8g	Be-	.	.	.	.	.
8d	-cause	8B 8d 8g	-cause	.	.	.	.	.
8e-	your	8B- 8e- 8g	your	.	.	.	.	.
=35	=35	=35	=35	=35	=35	=35	=35	=35
8e-	kiss	8B- 8e- 8g	kiss	1Cmm	C:min7 (C E- G B-)	.	.	voice
8r	.	8r	.	.	.	.	.	.
8g	your	4r	.	.	.	.	.	.
8f	kiss	.	.	.	.	.	.	.
4r	.	2r	.	.	.	.	.	.
8d	is	.	.	.	.	.	.	.
8[e-	on	.	.	.	.	.	.	.
=36	=36	=36	=36	=36	=36	=36	=36	=36
4e-]	_	2r	.	1Cmm	C:min7 (C E- G B-)	.	.	voice
8f	my	.	.	.	.	.	.	.
16g	list,	.	.	.	.	.	.	.
16f	_	.	.	.	.	.	.	.
8e-	_	8r	.	.	.	.	.	.
8g	be-	8c 8a	be-	.	.	.	.	.
8g	-cause	8c 8a	-cause	.	.	.	.	.
8g	your	8c 8a	your	.	.	.	.	.
=37	=37	=37	=37	=37	=37	=37	=37	=37
16g	kiss	4c 4f 4a	kiss	1FM	F:maj (F A C)	.	.	voice
8.f	_	.	.	.	.	.	.	.
8f	is	8c 8f 8a	is	.	.	.	.	.
8[f	on	8[c 8[f 8[a	on	.	.	.	.	.
8f]	_	8c] 8f] 8a]	_	.	.	.	.	.
8c	my	8c 8f 8a	my	.	.	.	.	.
8c	list	8c 8f 8a	list	.	.	.	.	.
8r	.	8r	.	.	.	.	.	.
=38	=38	=38	=38	=38	=38	=38	=38	=38
4r	.	1r	.	1FM	F:maj (F A C)	.	.	voice
8B	of	.	.	.	.	.	.	.
8c	the	.	.	.	.	.	.	.
8e	best	.	.	.	.	.	.	.
8g	things	.	.	.	.	.	.	.
8e	in	.	.	.	.	.	.	.
8dq	_	.	.	.	.	.	.	.
8g	life	.	.	.	.	.	.	.
=39	=39	=39	=39	=39	=39	=39	=39	=39
2.[e	_	4.B 4.d 4.g	Ah	1CM	C:maj (C E G)	.	.	voice
.	.	8[c 8[e 8[g	_	.	.	.	.	.
.	.	4c] 4e] 4g]	_	.	.	.	.	.
8e_	_	4B 4d 4g	_	.	.	.	.	.
16.e]	_	.	.	.	.	.	.	.
32d	_	.	.	.	.	.	.	.
=40	=40	=40	=40	=40	=40	=40	=40	=40
16.e	_	8r	.	1CM	C:maj (C E G)	.	.	voice
32d	_	.	.	.	.	.	.	.
16.e	_	8B 8d	ah!	.	.	.	.	.
32d	_	.	.	.	.	.	.	.
8e	_	8c 8e	_	.	.	.	.	.
8r	.	8[d 8[f	_	.	.	.	.	.
8r	.	8d] 8f]	_	.	.	.	.	.
8d	Be-	8B 8d 8g	Be-	.	.	.	.	.
8d	-cause	8B 8d 8g	-cause	.	.	.	.	.
8e	your	8c 8e 8g	your	.	.	.	.	.
=41	=41	=41	=41	=41	=41	=41	=41	=41
*	*	*	*	*>D_chorus	*>D_chorus	*>D_chorus	*>D_chorus	*>D_chorus
4r	.	8e 8g 8cc	kiss	2CM	C:maj (C E G)	newline	80.189	voice
.	.	8r	.	.	.	.	.	.
8e	Your	4r	.	.	.	.	.	.
8d	kiss	.	.	.	.	.	.	.
4r	.	2r	.	2GM	G:maj (C G B D)	.	.	voice
8d	is	.	.	.	.	.	.	.
8[c	on	.	.	.	.	.	.	.
=42	=42	=42	=42	=42	=42	=42	=42	=42
4c]	_	2r	.	2Am	A:min (C A E)	.	.	voice
8cq	_	.	.	.	.	.	.	.
8d	my	.	.	.	.	.	.	.
8d	list	.	.	.	.	.	.	.
8r	.	8r	.	2GM	G:maj (C G B D)	.	.	voice
8d	be-	8B 8d 8g	Be-	.	.	.	.	.
8d	-cause	8B 8d 8g	-cause	.	.	.	.	.
8e-	your	8B- 8e- 8g	your	.	.	.	.	.
=43	=43	=43	=43	=43	=43	=43	=43	=43
8e-	kiss	8B- 8e- 8g	kiss	1Cmm	C:min7 (C E- G B-)	.	.	voice
8r	.	8r	.	.	.	.	.	.
8g	your	4r	.	.	.	.	.	.
8f	kiss	.	.	.	.	.	.	.
4r	.	2r	.	.	.	.	.	.
8d	I	.	.	.	.	.	.	.
8[e-	can't	.	.	.	.	.	.	.
=44	=44	=44	=44	=44	=44	=44	=44	=44
4e-]	_	2r	.	1Cmm	C:min7 (C E- G B-)	.	.	voice
8f	re-	.	.	.	.	.	.	.
16g	-sist,	.	.	.	.	.	.	.
16f	_	.	.	.	.	.	.	.
8e-	_	8r	.	.	.	.	.	.
8g	be-	8c 8a	be-	.	.	.	.	.
8g	-cause	8c 8a	-cause	.	.	.	.	.
8g	your	8c 8a	your	.	.	.	.	.
=45	=45	=45	=45	=45	=45	=45	=45	=45
16g	kiss	4c 4f 4a	kiss	1FM	F:maj (F A C)	.	.	voice
8.f	_	.	.	.	.	.	.	.
8f	is	8c 8f 8a	is	.	.	.	.	.
8[f	what	8[c 8[f 8[a	what	.	.	.	.	.
8f]	_	8c] 8f] 8a]	_	.	.	.	.	.
8c	I	8c 8f 8a	I	.	.	.	.	.
8c	miss	8c 8f 8a	miss	.	.	.	.	.
8r	.	8r	.	.	.	.	.	.
=46	=46	=46	=46	=46	=46	=46	=46	=46
4r	.	1r	.	1FM	F:maj (F A C)	.	.	voice
8B	when	.	.	.	.	.	.	.
8c	I	.	.	.	.	.	.	.
8e	turn	.	.	.	.	.	.	.
8g	out	.	.	.	.	.	.	.
8e	the	.	.	.	.	.	.	.
8dq	_	.	.	.	.	.	.	.
8g	light	.	.	.	.	.	.	.
=47	=47	=47	=47	=47	=47	=47	=47	=47
1[e	_	1r	.	1CM	C:maj (C E G)	.	.	voice
=48	=48	=48	=48	=48	=48	=48	=48	=48
2e]	_	1r	.	1CM	C:maj (C E G)	.	.	voice
8r	.	.	.	.	.	.	.	.
8g	I	.	.	.	.	.	.	.
4g	go	.	.	.	.	.	.	.
=49	=49	=49	=49	=49	=49	=49	=49	=49
*	*	*	*	*>B_verse	*>B_verse	*>B_verse	*>B_verse	*>B_verse
16b-	cra	1r	.	1Cm	C:min (C E- G)	newline	95.983	voice
8.g	_	.	.	.	.	.	.	.
16g	zy	.	.	.	.	.	.	.
8.f	_	.	.	.	.	.	.	.
8f~q	_	.	.	.	.	.	.	.
8e-~	won-	.	.	.	.	.	.	.
8e-~	-der-	.	.	.	.	.	.	.
8e-~	-ing	.	.	.	.	.	.	.
16d	what	.	.	.	.	.	.	.
16c	_	.	.	.	.	.	.	.
=50	=50	=50	=50	=50	=50	=50	=50	=50
8r	.	1r	.	1Cm	C:min (C E- G)	.	.	voice
8c	there	.	.	.	.	.	.	.
8c	real-	.	.	.	.	.	.	.
8G	-ly	.	.	.	.	.	.	.
8B-	is	.	.	.	.	.	.	.
8G	to	.	.	.	.	.	.	.
4[B-	see	.	.	.	.	.	.	.
=51	=51	=51	=51	=51	=51	=51	=51	=51
8B-]	_	1r	.	1Fm	F:min (F A- C)	.	.	voice
16G	_	.	.	.	.	.	.	.
16F	_	.	.	.	.	.	.	.
4E-	_	.	.	.	.	.	.	.
8Fq	_	.	.	.	.	.	.	.
8G	_	.	.	.	.	.	.	.
8Fq	_	.	.	.	.	.	.	.
8G	_	.	.	.	.	.	.	.
4r	.	.	.	.	.	.	.	.
=52	=52	=52	=52	=52	=52	=52	=52	=52
2r	.	1r	.	1Fm	F:min (F A- C)	.	.	voice
4r	.	.	.	.	.	.	.	.
8c	Did	.	.	.	.	.	.	.
8e-	the	.	.	.	.	.	.	.
=53	=53	=53	=53	=53	=53	=53	=53	=53
4e-	night	1r	.	1A-M	A-:maj (A- C E-)	.	.	voice
4e-	just	.	.	.	.	.	.	.
8e-	take	.	.	.	.	.	.	.
8c	up	.	.	.	.	.	.	.
8g	your	.	.	.	.	.	.	.
8f	time	.	.	.	.	.	.	.
=54	=54	=54	=54	=54	=54	=54	=54	=54
4r	.	1r	.	1B-M	B-:maj (B- D F)	.	.	voice
8B-	Cuz'	.	.	.	.	.	.	.
8B-	it	.	.	.	.	.	.	.
6g	means	.	.	.	.	.	.	.
6f	more	.	.	.	.	.	.	.
6e-	to	.	.	.	.	.	.	.
=55	=55	=55	=55	=55	=55	=55	=55	=55
16f	me	1r	.	1CM	C:maj(9) (C E G D)	.	.	voice
16e-	_	.	.	.	.	.	.	.
8[c	_	.	.	.	.	.	.	.
2.c_	_	.	.	.	.	.	.	.
=56	=56	=56	=56	=56	=56	=56	=56	=56
2c_	_	1r	.	1CM	C:maj(9) (C E G D)	.	.	voice
8c]	_	.	.	.	.	.	.	.
8r	.	.	.	.	.	.	.	.
16f	Some	.	.	.	.	.	.	.
8.g	_	.	.	.	.	.	.	.
=57	=57	=57	=57	=57	=57	=57	=57	=57
16g	times	1r	.	1Cm	C:min (C E- G)	newline	111.778	voice
8.f	_	.	.	.	.	.	.	.
8g~q	_	.	.	.	.	.	.	.
8f	I	.	.	.	.	.	.	.
8e-	for-	.	.	.	.	.	.	.
8e-	-get	.	.	.	.	.	.	.
8d	what	.	.	.	.	.	.	.
8d	I'm	.	.	.	.	.	.	.
8c	do-	.	.	.	.	.	.	.
=58	=58	=58	=58	=58	=58	=58	=58	=58
8c	-ing,	1r	.	1Cm	C:min (C E- G)	.	.	voice
8G	I	.	.	.	.	.	.	.
8G	don't	.	.	.	.	.	.	.
8G	for-	.	.	.	.	.	.	.
8B-	-get	.	.	.	.	.	.	.
8B-	what	.	.	.	.	.	.	.
8G	I	.	.	.	.	.	.	.
8[B-	want	.	.	.	.	.	.	.
=59	=59	=59	=59	=59	=59	=59	=59	=59
8B-]	_	1r	.	1Fm	F:min (F A- C)	.	.	voice
8c	_	.	.	.	.	.	.	.
4r	.	.	.	.	.	.	.	.
4r	.	.	.	.	.	.	.	.
8G	I	.	.	.	.	.	.	.
8F	want	.	.	.	.	.	.	.
=60	=60	=60	=60	=60	=60	=60	=60	=60
2r	.	1r	.	1Fm	F:min (F A- C)	.	.	voice
4r	.	.	.	.	.	.	.	.
8r	.	.	.	.	.	.	.	.
8c	Re-	.	.	.	.	.	.	.
=61	=61	=61	=61	=61	=61	=61	=61	=61
4e-	-gret	1r	.	1A-M	A-:maj (A- C E-)	.	.	voice
8e-	what	.	.	.	.	.	.	.
8c	I've	.	.	.	.	.	.	.
4e-	done,	.	.	.	.	.	.	.
8e-	re-	.	.	.	.	.	.	.
8f	-gret	.	.	.	.	.	.	.
=62	=62	=62	=62	=62	=62	=62	=62	=62
8f	you	1r	.	1B-M	B-:maj (B- D F)	.	.	voice
4r	.	.	.	.	.	.	.	.
8B-	I	.	.	.	.	.	.	.
8g	could-	.	.	.	.	.	.	.
8f	-n't	.	.	.	.	.	.	.
8e-	go	.	.	.	.	.	.	.
16f	on	.	.	.	.	.	.	.
16e-	_	.	.	.	.	.	.	.
=63	=63	=63	=63	=63	=63	=63	=63	=63
1[c	_	1r	.	1CM	C:maj(9) (C E G D)	.	.	voice
=64	=64	=64	=64	=64	=64	=64	=64	=64
4.c]	_	1r	.	1CM	C:maj(9) (C E G D)	.	.	voice
8r	.	.	.	.	.	.	.	.
8g	But	.	.	.	.	.	.	.
8g	if	.	.	.	.	.	.	.
8g	you	.	.	.	.	.	.	.
8g	in-	.	.	.	.	.	.	.
=65	=65	=65	=65	=65	=65	=65	=65	=65
*	*	*	*	*>C_prechorus	*>C_prechorus	*>C_prechorus	*>C_prechorus	*>C_prechorus
8g	-sist	1r	.	2Fm	F:sus2 (F G C)	newline	127.535	voice
4r	.	.	.	.	.	.	.	.
8c	on	.	.	.	.	.	.	.
8e-	kno-	.	.	2Fm	F:min (F A- C)	.	.	voice
8f	-wing	.	.	.	.	.	.	.
8g	my	.	.	.	.	.	.	.
16g	bliss	.	.	.	.	.	.	.
16a-	_	.	.	.	.	.	.	.
=66	=66	=66	=66	=66	=66	=66	=66	=66
4g	_	1r	.	1Gmm	G:min7 (D G B- F)	.	.	voice
4r	.	.	.	.	.	.	.	.
2r	.	.	.	.	.	.	.	.
=67	=67	=67	=67	=67	=67	=67	=67	=67
4r	.	1r	.	1Fmm	F:min9 (F A- E- G)	.	.	voice
8g	I'll	.	.	.	.	.	.	.
8b-	tell	.	.	.	.	.	.	.
8g	_	.	.	.	.	.	.	.
8g	you	.	.	.	.	.	.	.
8f	_	.	.	.	.	.	.	.
8g	this	.	.	.	.	.	.	.
=68	=68	=68	=68	=68	=68	=68	=68	=68
2r	.	1r	.	1Gmm	G:min7 (D G B- F)	.	.	voice
8c	If	.	.	.	.	.	.	.
8e-	you	.	.	.	.	.	.	.
8e-	wan-	.	.	.	.	.	.	.
8c	-na	.	.	.	.	.	.	.
=69	=69	=69	=69	=69	=69	=69	=69	=69
4e-	know	1r	.	1Fmm	F:min9 (F A- E- G)	.	.	voice
8e-	what	.	.	.	.	.	.	.
8c	the	.	.	.	.	.	.	.
8e-	rea	.	.	.	.	.	.	.
8f	_	.	.	.	.	.	.	.
8g	son	.	.	.	.	.	.	.
16g	is	.	.	.	.	.	.	.
16a-	_	.	.	.	.	.	.	.
=70	=70	=70	=70	=70	=70	=70	=70	=70
16g	_	1r	.	1Gmm	G:min7 (D G B- F)	.	.	voice
16f	_	.	.	.	.	.	.	.
8g	_	.	.	.	.	.	.	.
4r	.	.	.	.	.	.	.	.
8r	.	.	.	.	.	.	.	.
8c	I	.	.	.	.	.	.	.
8e-	on-	.	.	.	.	.	.	.
8c	-ly	.	.	.	.	.	.	.
=71	=71	=71	=71	=71	=71	=71	=71	=71
4e-	smile	1r	.	1Fmm	F:min9 (F A- E- G)	.	.	voice
8e-	when	.	.	.	.	.	.	.
8c	I	.	.	.	.	.	.	.
4e-	lie,	.	.	.	.	.	.	.
8c	then	.	.	.	.	.	.	.
8e-	I	.	.	.	.	.	.	.
=72	=72	=72	=72	=72	=72	=72	=72	=72
8fq	_	.	.	.	.	.	.	.
8g	tell	2r	.	2FM	F:maj (G F A C)	.	.	voice
8g	you	.	.	.	.	.	.	.
4[g	why	.	.	.	.	.	.	.
8g]	_	8r	.	2GM	G:maj (G B D)	.	.	voice
8r	.	8d 8g 8b	Be-	.	.	.	.	.
4r	.	8d 8g 8b	-cause	.	.	.	.	.
.	.	8e 8g 8cc	your	.	.	.	.	.
=73	=73	=73	=73	=73	=73	=73	=73	=73
*	*	*	*	*>D_chorus	*>D_chorus	*>D_chorus	*>D_chorus	*>D_chorus
4r	.	8e 8g 8cc	kiss	2CM	C:maj (C E G)	newline	143.334	voice
.	.	8r	.	.	.	.	.	.
8e	Your	4r	.	.	.	.	.	.
8d	kiss	.	.	.	.	.	.	.
4r	.	2r	.	2GM	G:maj (C G B D)	.	.	voice
8d	is	.	.	.	.	.	.	.
8[c	on	.	.	.	.	.	.	.
=74	=74	=74	=74	=74	=74	=74	=74	=74
4c]	_	2r	.	2Am	A:min (C A E)	.	.	voice
8G	my	.	.	.	.	.	.	.
8d	list	.	.	.	.	.	.	.
8r	.	8r	.	2GM	G:maj (C G B D)	.	.	voice
8d	be-	8B 8d 8g	Be-	.	.	.	.	.
8d	-cause	8B 8d 8g	-cause	.	.	.	.	.
8e-	your	8B- 8e- 8g	your	.	.	.	.	.
=75	=75	=75	=75	=75	=75	=75	=75	=75
8e-	kiss	8B- 8e- 8g	kiss	1Cmm	C:min7 (C E- G B-)	.	.	voice
8r	.	8r	.	.	.	.	.	.
8g	your	4r	.	.	.	.	.	.
8f	kiss	.	.	.	.	.	.	.
4r	.	2r	.	.	.	.	.	.
8d	I	.	.	.	.	.	.	.
8[e-	can't	.	.	.	.	.	.	.
=76	=76	=76	=76	=76	=76	=76	=76	=76
8e-]	_	2r	.	1Cmm	C:min7 (C E- G B-)	.	.	voice
8g	re-	.	.	.	.	.	.	.
8c	-sist	.	.	.	.	.	.	.
8r	.	.	.	.	.	.	.	.
8r	.	8r	.	.	.	.	.	.
8g	be	8c 8a	be-	.	.	.	.	.
8g	cause	8c 8a	-cause	.	.	.	.	.
8g	your	8c 8a	your	.	.	.	.	.
=77	=77	=77	=77	=77	=77	=77	=77	=77
16g	kiss	4c 4f 4a	kiss	1FM	F:maj (F A C)	.	.	voice
8.f	_	.	.	.	.	.	.	.
8f	is	8c 8f 8a	is	.	.	.	.	.
8[f	what	8[c 8[f 8[a	what	.	.	.	.	.
8f]	_	8c] 8f] 8a]	_	.	.	.	.	.
8c	I	8c 8f 8a	I	.	.	.	.	.
8c	miss	8c 8f 8a	miss	.	.	.	.	.
8r	.	8r	.	.	.	.	.	.
=78	=78	=78	=78	=78	=78	=78	=78	=78
4r	.	1r	.	1FM	F:maj (F A C)	.	.	voice
8c	when	.	.	.	.	.	.	.
8c	I	.	.	.	.	.	.	.
8e	turn	.	.	.	.	.	.	.
8g	out	.	.	.	.	.	.	.
8e	the	.	.	.	.	.	.	.
8dq	_	.	.	.	.	.	.	.
8g	light	.	.	.	.	.	.	.
=79	=79	=79	=79	=79	=79	=79	=79	=79
1[e	_	1r	.	1CM	C:maj (C E G)	.	.	voice
=80	=80	=80	=80	=80	=80	=80	=80	=80
1e]	_	1r	.	1CM	C:maj (C E G)	.	.	voice
=81	=81	=81	=81	=81	=81	=81	=81	=81
*	*	*	*	*>E_solo	*>E_solo	*>E_solo	*>E_solo	*>E_solo
8[g	_	1r	.	1GM	G:maj (C G B D)	newline	159.12	electric guitar
16.g]	_	.	.	.	.	.	.	.
32f	_	.	.	.	.	.	.	.
16.g	_	.	.	.	.	.	.	.
32f	_	.	.	.	.	.	.	.
16.g	_	.	.	.	.	.	.	.
32f	_	.	.	.	.	.	.	.
8g	_	.	.	.	.	.	.	.
8r	.	.	.	.	.	.	.	.
4r	.	.	.	.	.	.	.	.
=82	=82	=82	=82	=82	=82	=82	=82	=82
1r	.	1r	.	1GM	G:maj (C G B D)	.	.	electric guitar
=83	=83	=83	=83	=83	=83	=83	=83	=83
1r	.	1r	.	1FM	F:maj (F A C)	.	.	electric guitar
=84	=84	=84	=84	=84	=84	=84	=84	=84
1r	.	1r	.	1FM	F:maj (F A C)	.	.	electric guitar
=85	=85	=85	=85	=85	=85	=85	=85	=85
1r	.	1r	.	1Adm	A:hdim7 (E- A C G)	.	.	electric guitar
=86	=86	=86	=86	=86	=86	=86	=86	=86
1r	.	1r	.	1Adm	A:hdim7 (E- A C G)	.	.	electric guitar
=87	=87	=87	=87	=87	=87	=87	=87	=87
1r	.	1r	.	1Dmm	D:min7 (D F A C)	.	.	electric guitar
=88	=88	=88	=88	=88	=88	=88	=88	=88
*clefG2	*	*	*	*	*	*	*	*
8ffq	_	.	.	.	.	.	.	.
1[gg	Ah	2r	.	1GMm	G:11 (G B F C)	.	.	electric guitar
.	.	8r	.	.	.	.	.	.
.	.	8B 8d 8g	Be-	.	.	.	.	.
.	.	8B 8d 8g	-cause	.	.	.	.	.
.	.	8c 8e 8g	your	.	.	.	.	.
=89	=89	=89	=89	=89	=89	=89	=89	=89
*	*	*	*	*>D_outro	*>D_outro	*>D_outro	*>D_outro	*>D_outro
8gg]	_	8c 8e 8g	kiss	2CM	C:maj (C E G)	newline	174.9	voice
8r	.	8r	.	.	.	.	.	.
8gq	_	.	.	.	.	.	.	.
4a	Your	4r	.	.	.	.	.	.
4g	kiss	2r	.	2GM	G:maj (C G B D)	.	.	voice
8e	is	.	.	.	.	.	.	.
8gq	_	.	.	.	.	.	.	.
8[a	on	.	.	.	.	.	.	.
=90	=90	=90	=90	=90	=90	=90	=90	=90
8a]	_	2r	.	2Am	A:min (C A E)	.	.	voice
8eq	_	.	.	.	.	.	.	.
8e	my	.	.	.	.	.	.	.
4g	list	.	.	.	.	.	.	.
2r	.	8r	.	2GM	G:maj (C G B D)	.	.	voice
.	.	8B 8d 8g	Be-	.	.	.	.	.
.	.	8B 8d 8g	-cause	.	.	.	.	.
.	.	8B- 8e- 8g	your	.	.	.	.	.
=91	=91	=91	=91	=91	=91	=91	=91	=91
8r	.	8B- 8e- 8g	kiss	1Cmm	C:min7 (C E- G B-)	.	.	voice
8aq	_	.	.	.	.	.	.	.
4cc	Your	8r	.	.	.	.	.	.
.	.	4r	.	.	.	.	.	.
8a	_	.	.	.	.	.	.	.
4f	kiss	2r	.	.	.	.	.	.
8e-	is	.	.	.	.	.	.	.
8fq	_	.	.	.	.	.	.	.
8[g	on	.	.	.	.	.	.	.
=92	=92	=92	=92	=92	=92	=92	=92	=92
8g]	_	2r	.	1Cmm	C:min7 (C E- G B-)	.	.	voice
8f	my	.	.	.	.	.	.	.
4f	list	.	.	.	.	.	.	.
8r	.	8r	.	.	.	.	.	.
8g	Be-	8c 8a	Be-	.	.	.	.	.
8g	-cause	8c 8a	-cause	.	.	.	.	.
8g	your	8c 8a	your	.	.	.	.	.
=93	=93	=93	=93	=93	=93	=93	=93	=93
16g	kiss	4c 4f 4a	kiss	1FM	F:maj (F A C)	.	.	voice
8.f	_	.	.	.	.	.	.	.
8f	is	8c 8f 8a	is	.	.	.	.	.
8[f	on	8[c 8[f 8[a	on	.	.	.	.	.
8f]	_	8c] 8f] 8a]	_	.	.	.	.	.
8c	my	8c 8f 8a	my	.	.	.	.	.
8c	list	8c 8f 8a	list	.	.	.	.	.
8r	.	8r	.	.	.	.	.	.
=94	=94	=94	=94	=94	=94	=94	=94	=94
4r	.	1r	.	1FM	F:maj (F A C)	.	.	voice
8c	of	.	.	.	.	.	.	.
8c	the	.	.	.	.	.	.	.
8e	best	.	.	.	.	.	.	.
8g	things	.	.	.	.	.	.	.
8e	in	.	.	.	.	.	.	.
8[g	life,	.	.	.	.	.	.	.
=95	=95	=95	=95	=95	=95	=95	=95	=95
2g_	_	4.B 4.d 4.g	Ah	1CM	C:maj (C E G)	.	.	voice
.	.	8[c 8[e 8[g	_	.	.	.	.	.
8g]	_	4c] 4e] 4g]	_	.	.	.	.	.
8e	_	.	.	.	.	.	.	.
16gQ	_,	.	.	.	.	.	.	.
[16aQ	_	.	.	.	.	.	.	.
4[a	_	4B 4d 4g	_	.	.	.	.	.
=96	=96	=96	=96	=96	=96	=96	=96	=96
8a]	_	8r	.	1CM	C:maj (C E G)	.	.	voice
4g	oh	8B 8d	ah!	.	.	.	.	.
.	.	8c 8e	_	.	.	.	.	.
8e~	man!	8[d 8[f	_	.	.	.	.	.
8d~	_	8d] 8f]	_	.	.	.	.	.
8e	Be-	8B 8d 8g	Be-	.	.	.	.	.
8e	-cause	8B 8d 8g	-cause	.	.	.	.	.
8a	your	8c 8e 8g	your	.	.	.	.	.
=97	=97	=97	=97	=97	=97	=97	=97	=97
*clefF4	*	*	*	*	*	*	*	*
8g	kiss	8e 8g 8cc	kiss	2CM	C:maj (C E G)	newline	190.649	voice
8r	.	8r	.	.	.	.	.	.
8dq	_	.	.	.	.	.	.	.
4e	Your	4r	.	.	.	.	.	.
8dq	_	.	.	.	.	.	.	.
4G	kiss	2r	.	2GM	G:maj (C G B D)	.	.	voice
8G	is	.	.	.	.	.	.	.
8[c	on	.	.	.	.	.	.	.
=98	=98	=98	=98	=98	=98	=98	=98	=98
8c]	_	2r	.	2Am	A:min (C A E)	.	.	voice
8G	my	.	.	.	.	.	.	.
4d	list	.	.	.	.	.	.	.
2r	.	8r	.	2GM	G:maj (C G B D)	.	.	voice
.	.	8B 8d 8g	Be-	.	.	.	.	.
.	.	8B 8d 8g	-cause	.	.	.	.	.
.	.	8B- 8e- 8g	your	.	.	.	.	.
=99	=99	=99	=99	=99	=99	=99	=99	=99
*clefG2	*	*	*	*	*	*	*	*
8r	.	8B- 8e- 8g	kiss	1Cmm	C:min7 (C E- G B-)	.	.	voice
8aq	_	.	.	.	.	.	.	.
4.cc	Your	8r	.	.	.	.	.	.
.	.	4r	.	.	.	.	.	.
4f	kiss	2r	.	.	.	.	.	.
8e-	I	.	.	.	.	.	.	.
8f	can't	.	.	.	.	.	.	.
=100	=100	=100	=100	=100	=100	=100	=100	=100
8e-	re	2r	.	1Cmm	C:min7 (C E- G B-)	.	.	voice
8f#q	_	.	.	.	.	.	.	.
8g	sist	.	.	.	.	.	.	.
8f#q	_	.	.	.	.	.	.	.
8g	_	.	.	.	.	.	.	.
8r	.	.	.	.	.	.	.	.
8r	.	8r	.	.	.	.	.	.
8g	Be-	8c 8a	Be-	.	.	.	.	.
8g	-cause	8c 8a	-cause	.	.	.	.	.
8g	your	8c 8a	your	.	.	.	.	.
=101	=101	=101	=101	=101	=101	=101	=101	=101
16g	kiss	4c 4f 4a	kiss	1FM	F:maj (F A C)	.	.	voice
8.f	_	.	.	.	.	.	.	.
8f	is	8c 8f 8a	is	.	.	.	.	.
8[f	what	8[c 8[f 8[a	what	.	.	.	.	.
8f]	_	8c] 8f] 8a]	_	.	.	.	.	.
8c	I	8c 8f 8a	I	.	.	.	.	.
8c	miss	8c 8f 8a	miss	.	.	.	.	.
8r	.	8r	.	.	.	.	.	.
=102	=102	=102	=102	=102	=102	=102	=102	=102
4r	.	1r	.	1FM	F:maj (F A C)	.	.	voice
8c	when	.	.	.	.	.	.	.
8c	I	.	.	.	.	.	.	.
8e	turn	.	.	.	.	.	.	.
8g	out	.	.	.	.	.	.	.
8e	the	.	.	.	.	.	.	.
8dq	_	.	.	.	.	.	.	.
8g	light	.	.	.	.	.	.	.
=103	=103	=103	=103	=103	=103	=103	=103	=103
1e	_	4.B 4.d 4.g	Ah	1CM	C:maj (C E G)	.	.	voice
.	.	8[c 8[e 8[g	_	.	.	.	.	.
.	.	4c] 4e] 4g]	_	.	.	.	.	.
.	.	4B 4d 4g	_	.	.	.	.	.
=104	=104	=104	=104	=104	=104	=104	=104	=104
16fQ	_	.	.	.	.	.	.	.
16.g	_	8r	.	1CM	C:maj (C E G)	.	.	voice
32f	_	.	.	.	.	.	.	.
16.g	_	8B 8d	ah!	.	.	.	.	.
32g	_	.	.	.	.	.	.	.
8G	_	8c 8e	_	.	.	.	.	.
8g	_	8[d 8[f	_	.	.	.	.	.
8r	.	8d] 8f]	_	.	.	.	.	.
8g	Be-	8B 8d 8g	Be-	.	.	.	.	.
8g	-cause	8B 8d 8g	-cause	.	.	.	.	.
8e	your	8c 8e 8g	your	.	.	.	.	.
=105	=105	=105	=105	=105	=105	=105	=105	=105
16g	kiss	8c 8e 8g	kiss	2CM	C:maj (C E G)	newline	206.406	fadeout
16a	_	.	.	.	.	.	.	.
8r	.	8r	.	.	.	.	.	.
8fq	_	.	.	.	.	.	.	.
8g	Your	4r	.	.	.	.	.	.
8d	_	.	.	.	.	.	.	.
4d	kiss	2r	.	2GM	G:maj (C G B D)	.	.	fadeout
8d	is	.	.	.	.	.	.	.
8[c	on	.	.	.	.	.	.	.
=106	=106	=106	=106	=106	=106	=106	=106	=106
8c]	_	2r	.	2Am	A:min (C A E)	.	.	fadeout
16c	my	.	.	.	.	.	.	.
8.d	_	.	.	.	.	.	.	.
8d	list	.	.	.	.	.	.	.
2r	.	8r	.	2GM	G:maj (C G B D)	.	.	fadeout
.	.	8B 8d 8g	_	.	.	.	.	.
.	.	8B 8d 8g	Be-	.	.	.	.	.
.	.	8B- 8e- 8g	-cause	.	.	.	.	.
=107	=107	=107	=107	=107	=107	=107	=107	=107
8r	.	8B- 8e- 8g	your	1Cmm	C:min7 (C E- G B-)	.	.	fadeout
8aq	_	.	.	.	.	.	.	.
4.cc	Your	8r	.	.	.	.	.	.
.	.	4r	.	.	.	.	.	.
4f	kiss	2r	.	.	.	.	.	.
8e-	I	.	.	.	.	.	.	.
8f	can't	.	.	.	.	.	.	.
=108	=108	=108	=108	=108	=108	=108	=108	=108
8e-	re	2r	.	1Cmm	C:min7 (C E- G B-)	.	.	fadeout
8f#q	_	.	.	.	.	.	.	.
8g	sist	.	.	.	.	.	.	.
8f#q	_	.	.	.	.	.	.	.
8g	_	.	.	.	.	.	.	.
8r	.	.	.	.	.	.	.	.
8g	Be-	8r	.	.	.	.	.	.
8g	-cause	8c 8a	_	.	.	.	.	.
8g	your	8c 8a	_	.	.	.	.	.
8r	.	8c 8a	_	.	.	.	.	.
=109	=109	=109	=109	=109	=109	=109	=109	=109
16g	kiss	4c 4f 4a	kiss	1FM	F:maj (F A C)	.	.	fadeout
8.f	_	.	.	.	.	.	.	.
8f	is	8c 8f 8a	is	.	.	.	.	.
8[f	on	8[c 8[f 8[a	on	.	.	.	.	.
8f]	_	8c] 8f] 8a]	_	.	.	.	.	.
8c	my	8c 8f 8a	my	.	.	.	.	.
8c	list	8c 8f 8a	list	.	.	.	.	.
8r	.	8r	.	.	.	.	.	.
=110	=110	=110	=110	=110	=110	=110	=110	=110
4r	.	1r	.	1FM	F:maj (F A C)	.	.	fadeout
8c	of	.	.	.	.	.	.	.
8c	the	.	.	.	.	.	.	.
8e	best	.	.	.	.	.	.	.
8g	things	.	.	.	.	.	.	.
8e	in	.	.	.	.	.	.	.
8dq	_	.	.	.	.	.	.	.
8g	life	.	.	.	.	.	.	.
=111	=111	=111	=111	=111	=111	=111	=111	=111
2.[e	_	4.B 4.d 4.g	Ah	1CM	C:maj (C E G)	.	.	fadeout
.	.	8[c 8[e 8[g	_	.	.	.	.	.
.	.	4c] 4e] 4g]	_	.	.	.	.	.
8e]	_	4B 4d 4g	_	.	.	.	.	.
8r	.	.	.	.	.	.	.	.
=112	=112	=112	=112	=112	=112	=112	=112	=112
8r	.	8r	.	1CM	C:maj (C E G)	.	.	fadeout
8e	Oh,	8B 8d	ah!	.	.	.	.	.
8f	_	8c 8e	_	.	.	.	.	.
8g	_	8[d 8[f	_	.	.	.	.	.
8a	_	8d] 8f]	_	.	.	.	.	.
8g	be-	8B 8d 8g	Be-	.	.	.	.	.
8g	-cause	8B 8d 8g	-cause	.	.	.	.	.
8e	your	8c 8e 8g	your	.	.	.	.	.
=113	=113	=113	=113	=113	=113	=113	=113	=113
16g	kiss	8c 8e 8g	kiss	2CM	C:maj (C E G)	newline	222.203	voice
16a	_	.	.	.	.	.	.	.
8r	.	8r	.	.	.	.	.	.
8fq	_	.	.	.	.	.	.	.
8g	Your	4r	.	.	.	.	.	.
8d	_	.	.	.	.	.	.	.
4d	kiss	2r	.	2GM	G:maj (C G B D)	.	.	voice
*clefF4	*	*	*	*	*	*	*	*
8d	is	.	.	.	.	.	.	.
8[c	on	.	.	.	.	.	.	.
=114	=114	=114	=114	=114	=114	=114	=114	=114
4c]	_	2r	.	2Am	A:min (C A E)	.	.	voice
8G	my	.	.	.	.	.	.	.
8d	list	.	.	.	.	.	.	.
8r	.	8r	.	2GM	G:maj (C G B D)	.	.	voice
8d	Be-	8B 8d 8g	Be-	.	.	.	.	.
8d	-cause	8B 8d 8g	-cause	.	.	.	.	.
8e-	your	8B- 8e- 8g	your	.	.	.	.	.
=115	=115	=115	=115	=115	=115	=115	=115	=115
*clefG2	*	*	*	*	*	*	*	*
8r	.	8B- 8e- 8g	kiss	1Cmm	C:min7 (C E- G B-)	.	.	voice
8aq	_	.	.	.	.	.	.	.
4.[cc	your	8r	.	.	.	.	.	.
.	.	4r	.	.	.	.	.	.
8cc]	_	2r	.	.	.	.	.	.
8f	kiss,	.	.	.	.	.	.	.
8e-	I	.	.	.	.	.	.	.
8f	can't	.	.	.	.	.	.	.
=116	=116	=116	=116	=116	=116	=116	=116	=116
1r	.	1r	.	1Cmm	C:min7 (C E- G B-)	.	.	voice
=117	=117	=117	=117	=117	=117	=117	=117	=117
1r	.	1r	.	1FM	F:maj (F A C)	.	.	voice
r;	.	r;	.	1r;	r	.	228.392	r
r;	.	r;	.	1r;	r	.	231.34	r
*-	*-	*-	*-	*-	*-	*-	*-	*-
!!!BillboardChartDate: 1981/01/31
!!!BillboardPeak: 1
!!!BillboardWeeksOnChart: 23
!!!COC: Daryl Hall & John Oates
!!!ENC: Nathaniel Condit-Schultz
!!!EST: Awating manual error checking and editing.
!!!OTL: Kiss On My List
!!!RDF**chordsym: original McGill chord annotation + (implied pitch class set, with bass pitch in first position)
!!!RDF**harmony: **recip + pitch class of root + harmonic quality
!!!RDF**leadinstrument: original McGill primary instrumentation annotation
!!!RDF**phrase: newline = linebreak in original McGill transcription
!!!RDF**timestamp: McGill audio timestamp in seconds
!!!RDT: 2017/01/12/
!!!SampleActualRank: 55
!!!SampleID#: 0018
!!!SampleTargetRank: 56
